svgs/light/arrow-down-to-line.svg

<svg xmlns="http://www.w3.org/2000/svg" viewBox="0 0 384 512"><!-- Font Awesome Pro 6.0.0-alpha2 by @fontawesome - https://fontawesome.com License - https://fontawesome.com/license (Commercial License) --><path d="M180.688 395.312C183.812 398.438 187.906 400 192 400S200.188 398.438 203.312 395.312L347.312 251.312C353.562 245.062 353.562 234.937 347.312 228.688S330.937 222.438 324.688 228.688L208 345.375V48C208 39.156 200.844 32 192 32S176 39.156 176 48V345.375L59.312 228.688C53.062 222.438 42.937 222.438 36.688 228.688S30.438 245.063 36.688 251.312L180.688 395.312ZM368 448H16C7.156 448 0 455.156 0 464S7.156 480 16 480H368C376.844 480 384 472.844 384 464S376.844 448 368 448Z"/></svg>

<svg xmlns="http://www.w3.org/2000/svg" viewBox="0 0 384 512"><!--! Font Awesome Pro 6.3.0 by @fontawesome - https://fontawesome.com License - https://fontawesome.com/license (Commercial License) Copyright 2023 Fonticons, Inc. --><path d="M180.7 395.3C183.8 398.4 187.9 400 192 400s8.188-1.562 11.31-4.688l144-144c6.25-6.25 6.25-16.38 0-22.62s-16.38-6.25-22.62 0L208 345.4V48C208 39.16 200.8 32 192 32S176 39.16 176 48v297.4L59.31 228.7c-6.25-6.25-16.38-6.25-22.62 0s-6.25 16.38 0 22.62L180.7 395.3zM368 448h-352C7.156 448 0 455.2 0 464S7.156 480 16 480h352c8.844 0 16-7.156 16-16S376.8 448 368 448z"/></svg>
